X:83
T: IHR LEUT IHR GLAUBT MIRSCH
N: E1112
O: Europa, Mitteleuropa, Deutschland, Vogtland
R: Luegen - Lied, Maerchen
M: 2/4
L: 1/16
K: F
F2 | c3cc3F | E3EE2z
c | c3cB2G2 | F4F2
F2 | c3cc3F | E3EE2z
c | c3cB2G2 | F4F2
A2 | B3cd3B | A3Bc3
A | G3AB3G | A3Bc2z
A | B3cd3B | A3Bc3
A | G3AB3G | F4z2

@@@ Tune index: 4767
